static/img/kroki/5e13d7f64f3de70291284212c9bca41e.svg

<?xml version="1.0" encoding="us-ascii" standalone="no"?><svg xmlns="http://www.w3.org/2000/svg" xmlns:xlink="http://www.w3.org/1999/xlink" contentStyleType="text/css" height="252px" preserveAspectRatio="none" style="width:234px;height:252px;" version="1.1" viewBox="0 0 234 252" width="234px" zoomAndPan="magnify"><defs/><g><!--class gcp_backend_service--><g id="elem_gcp_backend_service"><rect codeLine="22" fill="#3D176E" height="39.7891" id="gcp_backend_service" rx="2.5" ry="2.5" style="stroke:#000D19;stroke-width:0.5;" width="215" x="9.5" y="206.58"/><ellipse cx="24.5" cy="226.4745" fill="#ADD1B2" rx="11" ry="11" style="stroke:#181818;stroke-width:1.0;"/><path d="M27.4688,232.1152 Q26.8906,232.412 26.25,232.5527 Q25.6094,232.7089 24.9063,232.7089 Q22.4063,232.7089 21.0781,231.0683 Q19.7656,229.412 19.7656,226.287 Q19.7656,223.162 21.0781,221.5058 Q22.4063,219.8495 24.9063,219.8495 Q25.6094,219.8495 26.25,220.0058 Q26.9063,220.162 27.4688,220.4589 L27.4688,223.1777 Q26.8438,222.5995 26.25,222.3339 Q25.6563,222.0527 25.0313,222.0527 Q23.6875,222.0527 23,223.1308 Q22.3125,224.1933 22.3125,226.287 Q22.3125,228.3808 23,229.4589 Q23.6875,230.5214 25.0313,230.5214 Q25.6563,230.5214 26.25,230.2558 Q26.8438,229.9745 27.4688,229.3964 L27.4688,232.1152 Z " fill="#000000"/><text fill="#D9B8FF" font-family="Helvetica" font-size="17" lengthAdjust="spacing" textLength="173" x="43.5" y="232.3598">gcp_backend_service</text></g><!--class gcp_forwarding_rule--><g id="elem_gcp_forwarding_rule"><rect codeLine="24" fill="#3D176E" height="39.7891" id="gcp_forwarding_rule" rx="2.5" ry="2.5" style="stroke:#000D19;stroke-width:0.5;" width="212" x="11" y="7"/><ellipse cx="26" cy="26.8945" fill="#ADD1B2" rx="11" ry="11" style="stroke:#181818;stroke-width:1.0;"/><path d="M28.9688,32.5352 Q28.3906,32.832 27.75,32.9727 Q27.1094,33.1289 26.4063,33.1289 Q23.9063,33.1289 22.5781,31.4883 Q21.2656,29.832 21.2656,26.707 Q21.2656,23.582 22.5781,21.9258 Q23.9063,20.2695 26.4063,20.2695 Q27.1094,20.2695 27.75,20.4258 Q28.4063,20.582 28.9688,20.8789 L28.9688,23.5977 Q28.3438,23.0195 27.75,22.7539 Q27.1563,22.4727 26.5313,22.4727 Q25.1875,22.4727 24.5,23.5508 Q23.8125,24.6133 23.8125,26.707 Q23.8125,28.8008 24.5,29.8789 Q25.1875,30.9414 26.5313,30.9414 Q27.1563,30.9414 27.75,30.6758 Q28.3438,30.3945 28.9688,29.8164 L28.9688,32.5352 Z " fill="#000000"/><text fill="#D9B8FF" font-family="Helvetica" font-size="17" lengthAdjust="spacing" textLength="170" x="45" y="32.7798">gcp_forwarding_rule</text></g><!--class gcp_target_tcp_proxy--><g id="elem_gcp_target_tcp_proxy"><rect codeLine="26" fill="#3D176E" height="39.7891" id="gcp_target_tcp_proxy" rx="2.5" ry="2.5" style="stroke:#000D19;stroke-width:0.5;" width="220" x="7" y="106.79"/><ellipse cx="22" cy="126.6845" fill="#ADD1B2" rx="11" ry="11" style="stroke:#181818;stroke-width:1.0;"/><path d="M24.9688,132.3252 Q24.3906,132.622 23.75,132.7627 Q23.1094,132.9189 22.4063,132.9189 Q19.9063,132.9189 18.5781,131.2783 Q17.2656,129.622 17.2656,126.497 Q17.2656,123.372 18.5781,121.7158 Q19.9063,120.0595 22.4063,120.0595 Q23.1094,120.0595 23.75,120.2158 Q24.4063,120.372 24.9688,120.6689 L24.9688,123.3877 Q24.3438,122.8095 23.75,122.5439 Q23.1563,122.2627 22.5313,122.2627 Q21.1875,122.2627 20.5,123.3408 Q19.8125,124.4033 19.8125,126.497 Q19.8125,128.5908 20.5,129.6689 Q21.1875,130.7314 22.5313,130.7314 Q23.1563,130.7314 23.75,130.4658 Q24.3438,130.1845 24.9688,129.6064 L24.9688,132.3252 Z " fill="#000000"/><text fill="#D9B8FF" font-family="Helvetica" font-size="17" lengthAdjust="spacing" textLength="178" x="41" y="132.5698">gcp_target_tcp_proxy</text></g><!--link gcp_forwarding_rule to gcp_target_tcp_proxy--><g id="link_gcp_forwarding_rule_gcp_target_tcp_proxy"><path codeLine="28" d="M117,47.22 C117,64.36 117,83.27 117,100.41 " fill="none" id="gcp_forwarding_rule-to-gcp_target_tcp_proxy" style="stroke:#1A83AF;stroke-width:2.0;"/><polygon fill="#1A83AF" points="117,106.41,121,97.41,117,101.41,113,97.41,117,106.41" style="stroke:#1A83AF;stroke-width:2.0;"/></g><!--link gcp_target_tcp_proxy to gcp_backend_service--><g id="link_gcp_target_tcp_proxy_gcp_backend_service"><path codeLine="29" d="M117,147.01 C117,164.15 117,183.06 117,200.2 " fill="none" id="gcp_target_tcp_proxy-to-gcp_backend_service" style="stroke:#1A83AF;stroke-width:2.0;"/><polygon fill="#1A83AF" points="117,206.2,121,197.2,117,201.2,113,197.2,117,206.2" style="stroke:#1A83AF;stroke-width:2.0;"/></g><!--SRC=[XP11Jy9048Nl_8fDE9DG6mKk9fM4w8KOyMPCC-tEbWtjRZCxW6Zyxr9GismBt2RplfbvRvPQei2gvfseiCgGNC-jjAc1e189aTrERMb9z9K25Oz2SMODNmNcKA5un7A3h7C8YTUbpbS6dHCtdlG0-QeWkpRok9u9ZDjBQDYZfYKubp2JpjQCdXavoSPAXMIuj1_BQ7I7BSoIHFf5XiEXZ2OXSlNKnTp_n49_eeZyfyqjOyjcwyI1kkYo8JoJhQ1_-bcFpo2bDeMuzNelHqzaa4xwYoL8ksre1QNpppX6Gikx6gUjL3WPIpNgX9_EmNdpEL7aTPhj2JGoTKWRdQFuwdrxghAq1Me2fBGkGvM12kIKzsLDzcDtaBl61c_zA1d7oUnzSDyvsUjSrneBpFu0]--></g></svg>

<svg xmlns="http://www.w3.org/2000/svg" width="234" height="252" viewBox="0 0 234 252"><rect width="215" height="39.789" x="9.5" y="206.58" fill="#3D176E" rx="2.5" ry="2.5" style="stroke:#000d19;stroke-width:.5"/><circle cx="24.5" cy="226.475" r="11" fill="#ADD1B2" style="stroke:#181818;stroke-width:1"/><path d="M27.469 232.115q-.578.297-1.219.438-.64.156-1.344.156-2.5 0-3.828-1.64-1.312-1.657-1.312-4.782t1.312-4.781q1.328-1.656 3.828-1.656.703 0 1.344.156.656.156 1.219.453v2.719q-.625-.578-1.219-.844-.594-.281-1.219-.281-1.343 0-2.031 1.078-.687 1.062-.687 3.156t.687 3.172q.688 1.062 2.031 1.062.625 0 1.219-.265.594-.281 1.219-.86z"/><text x="43.5" y="232.36" fill="#D9B8FF" font-family="Helvetica" font-size="17" textLength="173">gcp_backend_service</text><rect width="212" height="39.789" x="11" y="7" fill="#3D176E" rx="2.5" ry="2.5" style="stroke:#000d19;stroke-width:.5"/><circle cx="26" cy="26.895" r="11" fill="#ADD1B2" style="stroke:#181818;stroke-width:1"/><path d="M28.969 32.535q-.578.297-1.219.438-.64.156-1.344.156-2.5 0-3.828-1.64-1.312-1.657-1.312-4.782t1.312-4.781q1.328-1.656 3.828-1.656.703 0 1.344.156.656.156 1.219.453v2.719q-.625-.578-1.219-.844-.594-.281-1.219-.281-1.343 0-2.031 1.078-.687 1.062-.687 3.156t.687 3.172q.688 1.062 2.031 1.062.625 0 1.219-.265.594-.281 1.219-.86z"/><text x="45" y="32.78" fill="#D9B8FF" font-family="Helvetica" font-size="17" textLength="170">gcp_forwarding_rule</text><rect width="220" height="39.789" x="7" y="106.79" fill="#3D176E" rx="2.5" ry="2.5" style="stroke:#000d19;stroke-width:.5"/><circle cx="22" cy="126.684" r="11" fill="#ADD1B2" style="stroke:#181818;stroke-width:1"/><path d="M24.969 132.325q-.578.297-1.219.438-.64.156-1.344.156-2.5 0-3.828-1.64-1.312-1.657-1.312-4.782t1.312-4.781q1.328-1.656 3.828-1.656.703 0 1.344.156.656.156 1.219.453v2.719q-.625-.579-1.219-.844-.594-.281-1.219-.281-1.343 0-2.031 1.078-.687 1.062-.687 3.156t.687 3.172q.688 1.062 2.031 1.062.625 0 1.219-.265.594-.281 1.219-.86z"/><text x="41" y="132.57" fill="#D9B8FF" font-family="Helvetica" font-size="17" textLength="178">gcp_target_tcp_proxy</text><path fill="none" d="M117 47.22v53.19" style="stroke:#1a83af;stroke-width:2"/><path fill="#1A83AF" d="m117 106.41 4-9-4 4-4-4z" style="stroke:#1a83af;stroke-width:2"/><path fill="none" d="M117 147.01v53.19" style="stroke:#1a83af;stroke-width:2"/><path fill="#1A83AF" d="m117 206.2 4-9-4 4-4-4z" style="stroke:#1a83af;stroke-width:2"/></svg>
